swiss/communes/5317.svg

<?xml version="1.0" encoding="UTF-8" standalone="no"?>
<svg
   xmlns:i="http://ns.adobe.com/AdobeIllustrator/10.0/"
   xmlns:dc="http://purl.org/dc/elements/1.1/"
   xmlns:cc="http://web.resource.org/cc/"
   xmlns:rdf="http://www.w3.org/1999/02/22-rdf-syntax-ns#"
   xmlns:svg="http://www.w3.org/2000/svg"
   xmlns="http://www.w3.org/2000/svg"
   xmlns:xlink="http://www.w3.org/1999/xlink"
   xmlns:sodipodi="http://sodipodi.sourceforge.net/DTD/sodipodi-0.dtd"
   xmlns:inkscape="http://www.inkscape.org/namespaces/inkscape"
   height="763"
   width="603"
   version="1.0"
   id="svg20"
   sodipodi:version="0.32"
   inkscape:version="0.44"
   sodipodi:docname="Maggia-coat_of_arms.svg"
   sodipodi:docbase="C:\Documents and Settings\Steve\Bureau\Blasons Suisse pour Wikimedia (par Delta-9)\Communes\[TI]\District de la Vallemaggia">
  <metadata
     id="metadata31">
    <rdf:RDF>
      <cc:Work
         rdf:about="">
        <dc:format>image/svg+xml</dc:format>
        <dc:type
           rdf:resource="http://purl.org/dc/dcmitype/StillImage" />
        <dc:date>07-AUG-2006</dc:date>
        <dc:creator>
          <cc:Agent>
            <dc:title>Jérôme BLUM (wagner51)</dc:title>
          </cc:Agent>
        </dc:creator>
        <cc:license
           rdf:resource="http://creativecommons.org/licenses/GPL/2.0/" />
        <dc:coverage />
        <dc:description>Gabarit pour le Projet:Blasons de WIkipédia</dc:description>
        <dc:subject>
          <rdf:Bag>
            <rdf:li>blason suisse modèle gabarit projet blasons</rdf:li>
          </rdf:Bag>
        </dc:subject>
        <dc:language>fr</dc:language>
        <dc:title>Gabrit d'un blason suisse</dc:title>
      </cc:Work>
      <cc:License
         rdf:about="http://creativecommons.org/licenses/GPL/2.0/">
        <cc:permits
           rdf:resource="http://web.resource.org/cc/Reproduction" />
        <cc:permits
           rdf:resource="http://web.resource.org/cc/Distribution" />
        <cc:requires
           rdf:resource="http://web.resource.org/cc/Notice" />
        <cc:permits
           rdf:resource="http://web.resource.org/cc/DerivativeWorks" />
        <cc:requires
           rdf:resource="http://web.resource.org/cc/ShareAlike" />
        <cc:requires
           rdf:resource="http://web.resource.org/cc/SourceCode" />
      </cc:License>
    </rdf:RDF>
  </metadata>
  <defs
     id="defs29"><linearGradient
   id="linearGradient2893">
  <stop
     style="stop-color:#ffffff;stop-opacity:0.3137255;"
     offset="0"
     id="stop2895" />
  <stop
     id="stop2897"
     offset="0.19"
     style="stop-color:#ffffff;stop-opacity:0.25098041;" />
  <stop
     style="stop-color:#6b6b6b;stop-opacity:0.1254902;"
     offset="0.60000002"
     id="stop2901" />
  <stop
     style="stop-color:#000000;stop-opacity:0.1254902;"
     offset="1"
     id="stop2899" />
</linearGradient>
<linearGradient
   id="linearGradient2955">
  <stop
     style="stop-color:white;stop-opacity:0;"
     offset="0"
     id="stop2965" />
  <stop
     style="stop-color:black;stop-opacity:0.64583331;"
     offset="1"
     id="stop2959" />
</linearGradient>
<radialGradient
   inkscape:collect="always"
   xlink:href="#linearGradient2893"
   id="radialGradient3236"
   gradientUnits="userSpaceOnUse"
   gradientTransform="matrix(1.215027,0,0,1.266667,-839.1924,-490.4894)"
   cx="858.04236"
   cy="579.93323"
   fx="858.04236"
   fy="579.93323"
   r="300" />

			<foreignObject
   requiredExtensions="http://ns.adobe.com/AdobeIllustrator/10.0/"
   x="0"
   y="0"
   width="1"
   height="1"
   id="foreignObject1952">
				<i:pgfRef
   xlink:href="#adobe_illustrator_pgf">
				</i:pgfRef>

			</foreignObject>

			
		
				
			
					
						
					
						
				
			<foreignObject
   requiredExtensions="http://ns.adobe.com/AdobeIllustrator/10.0/"
   x="0"
   y="0"
   width="1"
   height="1"
   id="foreignObject3823">
				<i:pgfRef
   xlink:href="#adobe_illustrator_pgf">
				</i:pgfRef>

			</foreignObject>

			
		
				
			
					
						
					
						
				</defs>
  <sodipodi:namedview
     inkscape:window-height="780"
     inkscape:window-width="1024"
     inkscape:pageshadow="2"
     inkscape:pageopacity="0.0"
     guidetolerance="10.0"
     gridtolerance="10.0"
     objecttolerance="10.0"
     borderopacity="1.0"
     bordercolor="#666666"
     pagecolor="#ffffff"
     id="base"
     inkscape:zoom="0.5"
     inkscape:cx="257.1779"
     inkscape:cy="338.4005"
     inkscape:window-x="21"
     inkscape:window-y="56"
     inkscape:current-layer="layer5"
     showgrid="false"
     showguides="true"
     inkscape:guide-bbox="true" />
  <desc
     id="desc22">Coat of Arms of Canton of Freiburg (Fribourg)</desc>
  <g
     inkscape:groupmode="layer"
     id="layer1"
     inkscape:label="Fond écu"
     style="opacity:1"
     sodipodi:insensitive="true">
    <path
       id="path1899"
       d="M 1.5,1.49998 L 1.5,460.3679 C 1.5,626.6785 135.81456,761.5 301.49999,761.5 C 467.18543,761.5 601.5,626.6785 601.5,460.3679 L 601.5,1.49998 L 1.5,1.49998 z "
       style="fill:#2b5df2;fill-opacity:1;stroke:none" />
  </g>
  <g
     inkscape:groupmode="layer"
     id="layer5"
     style="display:inline"
     sodipodi:insensitive="true">
    <path
       style="fill:#fcef3c;stroke:black;stroke-width:2.75;stroke-linecap:round;stroke-linejoin:round"
       d="M 166.46875,2.8125 L 1.5,303.4375 L 1.5,433.46875 L 166.46875,132.84375 L 301.5,378.875 L 436.53125,132.84375 L 601.5,433.46875 L 601.5,303.4375 L 436.53125,2.8125 L 301.5,248.875 L 166.46875,2.8125 z "
       id="polygon3828" />
    <path
       style="fill:white;stroke:black;stroke-width:2.75;stroke-linecap:round;stroke-linejoin:round"
       d="M 131.5,457.71875 C 79.147993,457.71874 44.81675,480.45075 17.21875,498.71875 C 12.832543,501.622 8.8018663,504.24863 5.03125,506.625 C 10.332557,541.13514 21.474822,573.71734 37.40625,603.3125 C 50.458912,596.61903 61.932985,589.02652 72.40625,582.09375 C 95.939248,566.51774 110.278,557.71875 131.5,557.71875 C 152.72099,557.71878 167.06075,566.51775 190.59375,582.09375 C 217.58375,599.95874 251.182,622.1875 301.5,622.1875 C 351.81801,622.18753 385.41625,599.95975 412.40625,582.09375 C 435.93825,566.51774 450.278,557.71875 471.5,557.71875 C 492.72101,557.71878 507.05975,566.51775 530.59375,582.09375 C 541.06701,589.02574 552.54109,596.61895 565.59375,603.3125 C 581.52518,573.71734 592.66744,541.13514 597.96875,506.625 C 594.1982,504.24869 590.16727,501.62182 585.78125,498.71875 C 558.18227,480.45074 523.851,457.71875 471.5,457.71875 C 419.14801,457.71874 384.81675,480.45075 357.21875,498.71875 C 333.90275,514.15174 320.821,522.1875 301.5,522.1875 C 282.17801,522.18753 269.09725,514.15075 245.78125,498.71875 C 218.18325,480.45074 183.852,457.71875 131.5,457.71875 z "
       id="path3830" />
  </g>
  <g
     inkscape:groupmode="layer"
     id="layer3"
     inkscape:label="Reflet final"
     style="display:inline"
     sodipodi:insensitive="true">
    <path
       style="fill:url(#radialGradient3236);fill-opacity:1"
       d="M 1.5,1.5 L 1.5,460.3679 C 1.5,626.67854 135.81454,761.5 301.49993,761.5 C 467.1854,761.5 601.5,626.67854 601.5,460.3679 L 601.5,1.5 L 1.5,1.5 z "
       id="path2346" />
  </g>
  <g
     inkscape:groupmode="layer"
     id="layer4"
     inkscape:label="Contour final"
     style="display:inline"
     sodipodi:insensitive="true">
    <path
       style="fill:none;fill-opacity:1;stroke:black;stroke-width:3;stroke-miterlimit:4;stroke-dasharray:none;stroke-opacity:1"
       d="M 1.5,1.5 L 1.5,460.36794 C 1.5,626.67854 135.81454,761.5 301.49993,761.5 C 467.1854,761.5 601.5,626.67854 601.5,460.36794 L 601.5,1.5 L 1.5,1.5 z "
       id="path3239" />
  </g>
</svg>

<svg xmlns="http://www.w3.org/2000/svg" xmlns:xlink="http://www.w3.org/1999/xlink" height="763" width="603" version="1.0"><defs><radialGradient xlink:href="#a" id="b" gradientUnits="userSpaceOnUse" gradientTransform="matrix(1.21503 0 0 1.26667 -839.192 -490.49)" cx="858.042" cy="579.933" fx="858.042" fy="579.933" r="300"/><linearGradient id="a"><stop style="stop-color:#fff;stop-opacity:.3137255" offset="0"/><stop offset=".19" style="stop-color:#fff;stop-opacity:.25098041"/><stop style="stop-color:#6b6b6b;stop-opacity:.1254902" offset=".6"/><stop style="stop-color:#000;stop-opacity:.1254902" offset="1"/></linearGradient></defs><g style="opacity:1"><path d="M1.5 1.5v458.868c0 166.31 134.315 301.132 300 301.132s300-134.822 300-301.132V1.5H1.5z" style="fill:#2b5df2;fill-opacity:1;stroke:none"/></g><g style="display:inline"><path style="fill:#fcef3c;stroke:#000;stroke-width:2.75;stroke-linecap:round;stroke-linejoin:round" d="M166.469 2.813 1.5 303.438v130.03l164.969-300.624L301.5 378.875l135.031-246.031L601.5 433.469V303.438L436.531 2.813 301.5 248.875 166.469 2.812z"/><path style="fill:#fff;stroke:#000;stroke-width:2.75;stroke-linecap:round;stroke-linejoin:round" d="M131.5 457.719c-52.352 0-86.683 22.732-114.281 41-4.386 2.903-8.417 5.53-12.188 7.906a299.867 299.867 0 0 0 32.375 96.688c13.053-6.694 24.527-14.286 35-21.22 23.533-15.575 37.872-24.374 59.094-24.374 21.221 0 35.56 8.799 59.094 24.375 26.99 17.865 60.588 40.093 110.906 40.093 50.318 0 83.916-22.227 110.906-40.093 23.532-15.576 37.872-24.375 59.094-24.375 21.221 0 35.56 8.799 59.094 24.375 10.473 6.932 21.947 14.525 35 21.218a299.867 299.867 0 0 0 32.375-96.687c-3.77-2.376-7.802-5.003-12.188-7.906-27.599-18.268-61.93-41-114.281-41-52.352 0-86.683 22.732-114.281 41-23.316 15.433-36.398 23.469-55.719 23.469-19.322 0-32.403-8.037-55.719-23.47-27.598-18.267-61.929-41-114.281-41z"/></g><g style="display:inline"><path style="fill:url(#b);fill-opacity:1" d="M1.5 1.5v458.868c0 166.31 134.315 301.132 300 301.132s300-134.821 300-301.132V1.5H1.5z"/></g><g style="display:inline"><path style="fill:none;fill-opacity:1;stroke:#000;stroke-width:3;stroke-miterlimit:4;stroke-dasharray:none;stroke-opacity:1" d="M1.5 1.5v458.868c0 166.31 134.315 301.132 300 301.132s300-134.821 300-301.132V1.5H1.5z"/></g></svg>
